src/img/sbb/share/share_25_large.svg

<svg xmlns="http://www.w3.org/2000/svg" width="48" height="48" viewBox="0 0 48 48">
  <path fill="none" stroke="#000" stroke-width="2" d="M29.49,12.9844 C30.156,14.2084 31.446,15.0004 33,15.0004 C35.288,15.0004 37,13.2884 37,11.0004 C37,8.7124 35.288,7.0004 33,7.0004 C30.712,7.0004 29,8.7124 29,11.0004 C29,11.7323322 29.1759674,12.4062752 29.4899128,12.9842394 L16.3313345,20.6974039 C15.6312421,19.6499882 14.435545,19.0004 13,19.0004 C10.686,19.0004 9,20.6864 9,23.0004 C9,25.3124 10.686,27.0004 13,27.0004 C14.542,27.0004 15.804,26.2504 16.474,25.0684 C16.812,24.4744 17,23.7724 17,23.0004 C17,22.1244 16.758,21.3364 16.332,20.6984 Z M29.5566,32.9058 L16.4746,25.0698 L29.5559825,32.9054301 C30.258,31.7014 31.506,30.9994 33,30.9994 C35.234,30.9994 37,32.7654 37,34.9994 C37,37.2354 35.234,38.9994 33,38.9994 C30.766,38.9994 29.012,37.2354 29.012,34.9994 C29.012,34.2594119 29.2099936,33.5034244 29.5559833,32.9054289 Z"/>
</svg>

<svg xmlns="http://www.w3.org/2000/svg" viewBox="0 0 48 48"><path fill="none" stroke="#000" stroke-width="2" d="M29.49 12.984C30.156 14.208 31.446 15 33 15c2.288 0 4-1.712 4-4 0-2.288-1.712-4-4-4-2.288 0-4 1.712-4 4 0 .732.176 1.406.49 1.984L16.33 20.697C15.631 19.65 14.436 19 13 19c-2.314 0-4 1.686-4 4 0 2.312 1.686 4 4 4 1.542 0 2.804-.75 3.474-1.932A4.152 4.152 0 0017 23c0-.876-.242-1.664-.668-2.302zm.067 19.922L16.475 25.07l13.081 7.835C30.258 31.701 31.506 31 33 31c2.234 0 4 1.766 4 4 0 2.236-1.766 4-4 4s-3.988-1.764-3.988-4c0-.74.198-1.496.544-2.094z"/></svg>
